SVG_Azure_All/Automation State Configuration (DSC).svg

<?xml version="1.0" encoding="UTF-8" standalone="no"?>
<!-- Generated by Microsoft Visio, SVG Export Automation State Configuration (DSC).svg Page-1 -->

<svg
   xmlns:dc="http://purl.org/dc/elements/1.1/"
   xmlns:cc="http://creativecommons.org/ns#"
   xmlns:rdf="http://www.w3.org/1999/02/22-rdf-syntax-ns#"
   xmlns:svg="http://www.w3.org/2000/svg"
   xmlns="http://www.w3.org/2000/svg"
   xmlns:sodipodi="http://sodipodi.sourceforge.net/DTD/sodipodi-0.dtd"
   xmlns:inkscape="http://www.inkscape.org/namespaces/inkscape"
   width="0.62991762in"
   height="0.78739738in"
   viewBox="0 0 45.354061 56.692899"
   xml:space="preserve"
   class="st4"
   version="1.1"
   id="svg49"
   sodipodi:docname="Automation State Configuration (DSC).svg"
   style="font-size:12px;overflow:visible;color-interpolation-filters:sRGB;fill:none;fill-rule:evenodd;stroke-linecap:square;stroke-miterlimit:3"
   inkscape:version="0.92.5 (2060ec1f9f, 2020-04-08)"><metadata
   id="metadata55"><rdf:RDF><cc:Work
       rdf:about=""><dc:format>image/svg+xml</dc:format><dc:type
         rdf:resource="http://purl.org/dc/dcmitype/StillImage" /></cc:Work></rdf:RDF></metadata><defs
   id="defs53" /><sodipodi:namedview
   pagecolor="#ffffff"
   bordercolor="#666666"
   borderopacity="1"
   objecttolerance="10"
   gridtolerance="10"
   guidetolerance="10"
   inkscape:pageopacity="0"
   inkscape:pageshadow="2"
   inkscape:window-width="640"
   inkscape:window-height="480"
   id="namedview51"
   showgrid="false"
   inkscape:zoom="1.7193066"
   inkscape:cx="30.236048"
   inkscape:cy="23.277747"
   inkscape:window-x="0"
   inkscape:window-y="0"
   inkscape:window-maximized="0"
   inkscape:current-layer="svg49" />
	<style
   type="text/css"
   id="style2">
	<![CDATA[
		.st1 {fill:#3999c6;stroke:none;stroke-linecap:butt;stroke-width:12.24}
		.st2 {fill:#ffffff;stroke:none;stroke-linecap:butt;stroke-width:12.24}
		.st3 {fill:#ffffff;fill-opacity:0.6;stroke:none;stroke-linecap:butt;stroke-width:12.24}
		.st4 {fill:none;fill-rule:evenodd;font-size:12px;overflow:visible;stroke-linecap:square;stroke-miterlimit:3}
	]]>
	</style>

	<g
   id="g47"
   transform="translate(-12.240182,-12.239999)">
		<title
   id="title4">Page-1</title>
		<g
   id="group8954-1"
   transform="translate(12.24,-34.0157)">
			<title
   id="title6">Automation State Configuration (DSC)</title>
			<g
   id="group8955-2">
				<title
   id="title8">Sheet.8955</title>
				<g
   id="shape8956-3">
					<title
   id="title10">Sheet.8956</title>
					<rect
   x="0"
   y="46.255699"
   width="45.354301"
   height="56.692902"
   class="st1"
   id="rect12"
   style="fill:#3999c6;stroke:none;stroke-width:12.23999977;stroke-linecap:butt" />
				</g>
				<g
   id="shape8957-5"
   transform="translate(4.50935,-7.93701)">
					<title
   id="title15">Sheet.8957</title>
					<path
   d="M 0.63,97.61 0.1,97.14 C 0,97.04 0,96.86 0.1,96.67 l 1.47,-1.12 c 0.1,-0.1 0.1,-0.1 0.21,-0.1 0.1,0 0.21,0 0.21,0.1 l 3.87,3.74 6.71,-7.59 c 0.1,-0.09 0.21,-0.09 0.31,-0.09 0.1,0 0.1,0 0.21,0.09 l 1.57,1.03 c 0.11,0.1 0.11,0.1 0.11,0.19 0,0.1 0,0.19 -0.11,0.19 l -8.69,9.84 z"
   class="st2"
   id="path17"
   inkscape:connector-curvature="0"
   style="fill:#ffffff;stroke:none;stroke-width:12.23999977;stroke-linecap:butt" />
				</g>
				<g
   id="shape8958-7"
   transform="translate(22.6772,-11.9055)">
					<title
   id="title20">Sheet.8958</title>
					<rect
   x="0"
   y="99.547096"
   width="18.141701"
   height="3.4015701"
   class="st3"
   id="rect22"
   style="fill:#ffffff;fill-opacity:0.6;stroke:none;stroke-width:12.23999977;stroke-linecap:butt" />
				</g>
				<g
   id="shape8959-9"
   transform="translate(4.50935,-22.6772)">
					<title
   id="title25">Sheet.8959</title>
					<path
   d="M 0.63,97.61 0.1,97.14 C 0,97.04 0,96.86 0.1,96.67 l 1.47,-1.12 c 0.1,-0.1 0.1,-0.1 0.21,-0.1 0.1,0 0.21,0 0.21,0.1 l 3.87,3.74 6.71,-7.59 c 0.1,-0.09 0.21,-0.09 0.31,-0.09 0.1,0 0.1,0 0.21,0.09 l 1.57,1.03 c 0.11,0.1 0.11,0.1 0.11,0.19 0,0.1 0,0.19 -0.11,0.19 l -8.69,9.84 z"
   class="st2"
   id="path27"
   inkscape:connector-curvature="0"
   style="fill:#ffffff;stroke:none;stroke-width:12.23999977;stroke-linecap:butt" />
				</g>
				<g
   id="shape8960-11"
   transform="translate(22.6772,-26.6457)">
					<title
   id="title30">Sheet.8960</title>
					<rect
   x="0"
   y="99.547096"
   width="18.141701"
   height="3.4015701"
   class="st3"
   id="rect32"
   style="fill:#ffffff;fill-opacity:0.6;stroke:none;stroke-width:12.23999977;stroke-linecap:butt" />
				</g>
				<g
   id="shape8961-13"
   transform="translate(4.50935,-37.4173)">
					<title
   id="title35">Sheet.8961</title>
					<path
   d="M 0.63,97.61 0.1,97.14 C 0,97.04 0,96.86 0.1,96.67 l 1.47,-1.12 c 0.1,-0.1 0.1,-0.1 0.21,-0.1 0.1,0 0.21,0 0.21,0.1 l 3.87,3.74 6.71,-7.59 c 0.1,-0.09 0.21,-0.09 0.31,-0.09 0.1,0 0.1,0 0.21,0.09 l 1.57,1.03 c 0.11,0.1 0.11,0.1 0.11,0.19 0,0.1 0,0.19 -0.11,0.19 l -8.69,9.84 z"
   class="st2"
   id="path37"
   inkscape:connector-curvature="0"
   style="fill:#ffffff;stroke:none;stroke-width:12.23999977;stroke-linecap:butt" />
				</g>
				<g
   id="shape8962-15"
   transform="translate(22.6772,-41.3858)">
					<title
   id="title40">Sheet.8962</title>
					<rect
   x="0"
   y="99.547096"
   width="18.141701"
   height="3.4015701"
   class="st3"
   id="rect42"
   style="fill:#ffffff;fill-opacity:0.6;stroke:none;stroke-width:12.23999977;stroke-linecap:butt" />
				</g>
			</g>
		</g>
	</g>
</svg>

<?xml version="1.0" encoding="UTF-8" standalone="no"?>
<!DOCTYPE svg PUBLIC "-//W3C//DTD SVG 1.1//EN" "http://www.w3.org/Graphics/SVG/1.1/DTD/svg11.dtd">
<!-- Generated by Microsoft Visio, SVG Export Automation State Configuration (DSC).svg Page-1 -->
<svg xmlns="http://www.w3.org/2000/svg" xmlns:xlink="http://www.w3.org/1999/xlink" xmlns:ev="http://www.w3.org/2001/xml-events"
		width="0.969921in" height="1.42984in" viewBox="0 0 69.8343 102.949" xml:space="preserve" color-interpolation-filters="sRGB"
		class="st4">
	<style type="text/css">
	<![CDATA[
		.st1 {fill:#3999c6;stroke:none;stroke-linecap:butt;stroke-width:12.24}
		.st2 {fill:#ffffff;stroke:none;stroke-linecap:butt;stroke-width:12.24}
		.st3 {fill:#ffffff;fill-opacity:0.6;stroke:none;stroke-linecap:butt;stroke-width:12.24}
		.st4 {fill:none;fill-rule:evenodd;font-size:12px;overflow:visible;stroke-linecap:square;stroke-miterlimit:3}
	]]>
	</style>

	<g>
		<title>Page-1</title>
		<g id="group8759-1" transform="translate(12.24,-34.0157)">
			<title>Automation State Configuration (DSC)</title>
			<g id="group8760-2">
				<title>Sheet.8760</title>
				<g id="shape8761-3">
					<title>Sheet.8761</title>
					<rect x="0" y="46.2557" width="45.3543" height="56.6929" class="st1"/>
				</g>
				<g id="shape8762-5" transform="translate(4.50935,-7.93701)">
					<title>Sheet.8762</title>
					<path d="M0.63 97.61 L0.1 97.14 C0 97.04 0 96.86 0.1 96.67 L1.57 95.55 C1.67 95.45 1.67 95.45 1.78 95.45 C1.88
								 95.45 1.99 95.45 1.99 95.55 L5.86 99.29 L12.57 91.7 C12.67 91.61 12.78 91.61 12.88 91.61 C12.98
								 91.61 12.98 91.61 13.09 91.7 L14.66 92.73 C14.77 92.83 14.77 92.83 14.77 92.92 C14.77 93.02 14.77
								 93.11 14.66 93.11 L5.97 102.95 L0.63 97.61 Z" class="st2"/>
				</g>
				<g id="shape8763-7" transform="translate(22.6772,-11.9055)">
					<title>Sheet.8763</title>
					<rect x="0" y="99.5471" width="18.1417" height="3.40157" class="st3"/>
				</g>
				<g id="shape8764-9" transform="translate(4.50935,-22.6772)">
					<title>Sheet.8764</title>
					<path d="M0.63 97.61 L0.1 97.14 C0 97.04 0 96.86 0.1 96.67 L1.57 95.55 C1.67 95.45 1.67 95.45 1.78 95.45 C1.88
								 95.45 1.99 95.45 1.99 95.55 L5.86 99.29 L12.57 91.7 C12.67 91.61 12.78 91.61 12.88 91.61 C12.98
								 91.61 12.98 91.61 13.09 91.7 L14.66 92.73 C14.77 92.83 14.77 92.83 14.77 92.92 C14.77 93.02 14.77
								 93.11 14.66 93.11 L5.97 102.95 L0.63 97.61 Z" class="st2"/>
				</g>
				<g id="shape8765-11" transform="translate(22.6772,-26.6457)">
					<title>Sheet.8765</title>
					<rect x="0" y="99.5471" width="18.1417" height="3.40157" class="st3"/>
				</g>
				<g id="shape8766-13" transform="translate(4.50935,-37.4173)">
					<title>Sheet.8766</title>
					<path d="M0.63 97.61 L0.1 97.14 C0 97.04 0 96.86 0.1 96.67 L1.57 95.55 C1.67 95.45 1.67 95.45 1.78 95.45 C1.88
								 95.45 1.99 95.45 1.99 95.55 L5.86 99.29 L12.57 91.7 C12.67 91.61 12.78 91.61 12.88 91.61 C12.98
								 91.61 12.98 91.61 13.09 91.7 L14.66 92.73 C14.77 92.83 14.77 92.83 14.77 92.92 C14.77 93.02 14.77
								 93.11 14.66 93.11 L5.97 102.95 L0.63 97.61 Z" class="st2"/>
				</g>
				<g id="shape8767-15" transform="translate(22.6772,-41.3858)">
					<title>Sheet.8767</title>
					<rect x="0" y="99.5471" width="18.1417" height="3.40157" class="st3"/>
				</g>
			</g>
		</g>
	</g>
</svg>
